X:1
T:Variation on a Waltz by Diabelli
T:VARIATION ÜBER EINEN WALZER VON DIABELLI
T:R 26, SW 147
T:ANTON DIABELLI
T:Für Klavier von F. Liszt
C:Franz Liszt
%%score { ( 1 3 ) | 2 }
L:1/8
Q:1/4=172
M:3/4
K:C
V:1 treble nm="Piano" snm="Pno."
V:3 treble 
V:2 bass 
V:1
!p!"^Vivace""^Thema"{/d} (cB) | .c2 (.[CEG]2 .[CEG]2 |!<(! .[CEG]2 .[CEG]2 .[CEG]2 | %3
 .[CEG]2 .[CEG]2 .[CEG]2)!<)! |!f! .[CEG]2 .[CEG]2!p!{/e} (d^c) | .d2 (.[DFG]2 .[DFG]2 | %6
!<(! .[DFG]2 .[DFG]2 .[DFG]2 | .[DFG]2 .[DFG]2 .[DFG]2)!<)! |!f! .[DFG]2 .[DFG]2 (([CE]2 | %9
 [CF]2)) .A2 (([CE]2 | [CF]2)) .A2 (([D^F]2 | [DG]2)) .B2 (([D^F]2 | [DG]2)) .B2 (([E^G]2 | %13
 .[EA]2))!<(! .[E^GB]2 .[EAc]2!<)! |!>(! ([Bd]2 [Ac]2)!>)!!p! A2 | ([B,=G]2 [CA]2) .[A,^F]2 | %16
 [B,G]2 z2 ::!p!{/^F} G2 | (.[=FGd]2 .[FGd]2!<(! .[FGd]2 | .[FGd]2 .[FGd]2 .[FGd]2 | %20
 .[FGd]2 .[FGd]2 .[FGd]2)!<)! |!f! .[FGd]2 .[FGd]2!p!{/^F} G2 | (.[Gce]2 .[Gce]2 .[Gce]2 | %23
!<(! .[Gce]2 .[Gce]2 .[Gce]2 | .[Gce]2 .[Gce]2 .[Gce]2)!<)! |!f! .[Gce]2 .[Gce]2 .[ce]2 | %26
 (f2 a2) .e2 | (f2 a2) .^f2 | (g2 =b2) .^f2 | (g2 b2)!ff! .b2 | .[gc']2 .[gbd']2 .[gc'e']2 | %31
 ([d'f']2 [c'e']2)!f! .d'2 | ([ec']2 [fd']2) .[db]2 | [ec']2 z2 :: %34
[K:Eb][M:2/4]"^FRANZ LISZT"[Q:1/4=115]"^\n""^Variation"!f![Q:1/4=144]"^Allegro" c/=B/ | %35
 c/e/G/c/ E/G/C/E/ |[K:bass] G,/C/E,/G,/ C,/E,/G,,/C,/ | z2[K:treble] !arpeggio![cegc'] z | %38
 z2 C/E/G/c/ |!p! d/e/d/^c/ d/f/=B/d/ |"_cresc." A/=B/F/A/ D/F/=B,/D/ | z2 !arpeggio![dfad'] z | %42
 z/[K:bass] =E,/G,/_D/[K:treble]!f! =E/G/_d/=e/ | f/c/a/f/!p! =e/c/g/e/ | f/c/a/g/!f! ^f/d/=a/f/ | %45
 g/d/b/g/!p! ^f/d/=a/f/ | g/d/b/=a/!f! g/_e/b/g/ | a/e/c'/a/"_cresc." =a/^f/e'/a/ | %48
!8va(! =e'/b/g'/e'/ b'/g'/=e''/b'/ | d'/[b'd'']/g'/[b'd'']/ =a/[d'^f']/c'/[d'f']/ | %50
 g'/d'/b/g/!8va)! z ::!p!!8va(! =f'/=e'/ |"_cresc." f'/_a'/d'/f'/ =b/d'/a/b/!8va)! | %53
 f/a/d/f/ =B/d/A/B/ | F/A/D/F/!f! =B,/D/F/A/ | =B/d/f/a/!>(! =b/d'/f'/a'/!>)! | %56
!p! =e'/g'/_d'/e'/ b/d'/g/b/ |"_cresc." =e/g/_d/e/ B/d/G/B/ | =E/G/_D/E/!f! B,/D/E/G/ | %59
 B/_d/=e/g/ b/_d'/=e'/g'/ |!8va(! f'/!f!c'/a'/f'/ =e'/_d'/g'/e'/ | f'/c'/a'/f'/ _g'/d'/=a'/f'/ | %62
 g'/d'/b'/g'/ _g'/d'/=a'/g'/ | g'/d'/d''/c''/!ff! =b'/a'/d''/b'/ | %64
 c''/g'/=b'/c''/ d''/g'/c''/d''/ | e''/g'/c''/e''/ f'/[d''f'']/a'/[d''f'']/ | %66
 e'/[c''e'']/g'/[c''e'']/ d'/[=b'd'']/f'/[b'd'']/ | c''/g'/e'/c'/!8va)! z :| %68
V:2
 z2 |!p! .C,2 z2 .G,,2 | .C,2 z2 .G,,2 | C,2 (E,,F,, G,,E,,) | .C,,2 z2 z2 |!p! .G,,2 z2 .D,,2 | %6
 .G,,2 z2 .D,,2 | G,,2 B,,,C,, D,,B,,, | .G,,,2 z2 (_B,,2 | A,,2) .F,,2 (_B,,2 | A,,2) .F,,2 (C,2 | %11
 =B,,2) .G,,2 (C,2 | B,,2) .G,,2 ([D,,D,]2 | [C,,C,]2) .[B,,,B,,]2 .[A,,,A,,]2 | %14
 ([^G,,,^G,,]2 [A,,,A,,]2) .[C,,C,]2 | [D,,D,]4 .[D,,D,]2 | [G,,,G,,]2 z2 :: z2 | %18
!p! .[G,,G,]2 z2 .B,2 |"_cresc." .D2 z2 .B,2 |!f! .G,2 (D,C, B,,A,,) | .G,,2 z2 z2 | %22
!p! .[C,,C,]2 z2 .E,2 |"_cresc." .G,2 z2 .A,2 | ._B,2 (G,F, E,D,) | .C,2 z2 .[_B,,_B,]2 | %26
 [A,,A,]4 .[_B,,_B,]2 | [A,,A,]4 .[C,C]2 | [=B,,=B,]4 .[C,C]2 | [B,,B,]4 .[=F,,=F,]2 | %30
 .[E,,E,]2 .[D,,D,]2 .[C,,C,]2 | ([B,,,B,,]2 [C,,C,]2) .[F,,F,]2 | [G,,G,]4 .[G,,G,]2 | %33
 [C,,C,]2 z2 ::[K:Eb][M:2/4] z | C,, z [G,,C,E,] z | z2[K:treble] [eg] z | %37
[K:bass] E,,/F,,/G,,/F,,/ E,,/F,,/D,,/E,,/ | C,,/E,,/G,,/C,/ z2 | [=B,,,=B,,] z [B,,D,F,A,] z | %40
 z2[K:treble] [fa] z |[K:bass] A,/=B,/F,/A,/ D,/F,/=B,,/D,/ | [_B,,,_B,,]2 [B,,B,]2 | %43
 [A,,A,]2 [B,,,B,,]2 | [A,,,A,,]2 [C,C]2 | [B,,B,]2 [C,,C,]2 | [B,,,B,,]2 [_D,_D]2 | %47
 [C,C]2 [C,C]2 | [^C,^C]2 [^C,,C,]2 | [D,,D,]2 [D,,D,]2 | [G,,B,,] z G,,, :: z | %52
 [=B,,,=B,,] z [B,,D,F,A,] z | z2[K:treble] [f'a'] z | z2[K:bass] [=B,,D,F,A,] z | %55
 z2 [=B,,,=B,,] z | [_B,,,_B,,] z [B,,_D,=E,G,] z | z2[K:treble] [=e'g'] z | %58
 z2[K:bass] [B,,_D,=E,G,] z | z2 [B,,,B,,]2 | [A,,,A,,]2 [B,,B,]2 | [A,,A,]2 [C,,C,]2 | %62
 [=B,,,=B,,]2 [C,C]2 | [=B,,=B,]2 [=F,,=F,]2 | [E,,E,]2 [D,,D,]2 | [C,,C,]2 [F,,F,]2 | %66
 [G,,G,]2 [G,,G,]2 | [C,E,] z C,, :| %68
V:3
 x2 | x6 | x6 | x6 | x6 | x6 | x6 | x6 | x6 | x6 | x6 | x6 | x6 | x6 | E4 .C2 | x6 | x4 :: x2 | %18
 x6 | x6 | x6 | x6 | x6 | x6 | x6 | x6 | c4 c2 | c4 d2 | d4 d2 | d4 g2 | x6 | !>!g4 f2 | x6 | x4 :: %34
[K:Eb][M:2/4] x | x4 |[K:bass] x4 | x2[K:treble] x2 | x4 | x4 | x4 | x4 | %42
 x/[K:bass] x3/2[K:treble] x2 | x4 | x4 | x4 | x4 | x4 |!8va(! x4 | x4 | x2!8va)! x ::!8va(! x | %52
 x4!8va)! | x4 | x4 | x4 | x4 | x4 | x4 | x4 |!8va(! x4 | x4 | x4 | x4 | x4 | x4 | x4 | %67
 x2!8va)! x :| %68

